;FLAVOR:Marlin
;TIME:1410
;Filament used: 0.544698m
;Layer height: 0.2
;MINX:73.991
;MINY:75.999
;MINZ:0.2
;MAXX:118
;MAXY:112.012
;MAXZ:10.4
;Generated with Cura_SteamEngine 4.4.1
M140 S55
M105
M190 S55
M104 S200
M105
M109 S200
M82 ;absolute extrusion mode
G21 ;metric values
G90 ;absolute positioning
M82 ;set extruder to absolute mode
M107 ;start with the fan off
G1 F2000
G28 X0 Y0 ;move X/Y to min endstops
G28 Z0 ;move Z to min endstops
G1 Z10.0 F1500 ;move the platform up 15mm
G92 E0 ;zero the extruded length
G1 F300 E3 ;extrude extra 3mm of feed stock
G92 E0 ;zero the extruded length again
;Put printing message on LCD screen
M117 Printing...
G92 E0
G92 E0
;LAYER_COUNT:52
;LAYER:0
M107
M204 S750
M205 X5 Y5
G0 F3000 X76.064 Y78.026 Z0.2
M204 S500
;TYPE:SKIRT
G1 F600 X76.481 Y77.644 E0.01204
G1 X77.074 Y77.194 E0.02788
G1 X77.477 Y76.944 E0.03798
G1 X78.06 Y76.645 E0.05193
G1 X78.649 Y76.402 E0.06549
G1 X79.434 Y76.169 E0.08292
G1 X79.901 Y76.081 E0.09303
G1 X80.555 Y76.013 E0.10703
G1 X81.196 Y75.999 E0.12068
G1 X81.457 Y76.002 E0.12624
G1 X81.876 Y76.02 E0.13516
G1 X84.589 Y76.097 E0.19294
G1 X87.333 Y76.097 E0.25135
G1 X89.501 Y76.036 E0.29751
G1 X89.528 Y76.035 E0.29809
G1 X91.198 Y75.999 E0.33365
G1 X91.458 Y76.002 E0.33918
G1 X91.876 Y76.02 E0.34809
G1 X94.589 Y76.097 E0.40586
G1 X97.333 Y76.097 E0.46427
G1 X99.501 Y76.036 E0.51044
G1 X99.529 Y76.035 E0.51103
G1 X101.125 Y76.001 E0.54501
G1 X101.852 Y76.052 E0.56053
G1 X102.473 Y76.153 E0.57392
G1 X103.274 Y76.371 E0.59159
G1 X103.703 Y76.537 E0.60138
G1 X104.293 Y76.822 E0.61533
G1 X104.854 Y77.153 E0.6292
G1 X105.505 Y77.632 E0.6464
G1 X105.904 Y77.993 E0.65785
G1 X106.332 Y78.446 E0.67112
G1 X106.458 Y78.602 E0.67539
G1 X106.574 Y78.753 E0.67944
G1 X106.743 Y78.984 E0.68553
G1 X107.055 Y79.483 E0.69806
G1 X107.344 Y80.032 E0.71127
G1 X107.598 Y80.628 E0.72506
G1 X108.48 Y83.268 E0.78431
G1 X109.406 Y85.804 E0.84178
G1 X110.407 Y88.328 E0.89958
G1 X111.482 Y90.825 E0.95744
G1 X112.626 Y93.291 E1.01531
G1 X113.843 Y95.729 E1.07331
G1 X115.113 Y98.103 E1.13062
G1 X116.869 Y101.137 E1.20524
G1 X116.949 Y101.282 E1.20877
G1 X117.352 Y102.05 E1.22723
G1 X117.654 Y102.803 E1.2445
G1 X117.789 Y103.272 E1.25489
G1 X117.919 Y103.923 E1.26902
G1 X117.987 Y104.517 E1.28175
G1 X118 Y105.298 E1.29837
G1 X117.958 Y105.812 E1.30935
G1 X117.838 Y106.51 E1.32443
G1 X117.681 Y107.103 E1.33749
G1 X117.406 Y107.838 E1.35419
G1 X117.193 Y108.273 E1.3645
G1 X116.85 Y108.847 E1.37873
G1 X116.483 Y109.358 E1.39213
G1 X115.937 Y109.973 E1.40963
G1 X115.528 Y110.348 E1.42144
G1 X114.941 Y110.795 E1.43715
G1 X114.527 Y111.053 E1.44753
G1 X113.938 Y111.355 E1.46162
G1 X113.352 Y111.597 E1.47512
G1 X112.566 Y111.831 E1.49258
G1 X112.099 Y111.919 E1.50269
G1 X111.444 Y111.987 E1.51671
G1 X110.792 Y112.001 E1.53059
G1 X110.536 Y111.998 E1.53604
G1 X110.093 Y111.979 E1.54548
G1 X107.37 Y111.903 E1.60347
G1 X104.624 Y111.903 E1.66192
G1 X102.035 Y111.975 E1.71705
G1 X102.035 Y111.976 E1.71707
G1 X101.17 Y112.012 E1.7355
G1 X100.834 Y112.011 E1.74265
G1 X100.183 Y111.983 E1.75652
G1 X97.446 Y111.904 E1.81481
G1 X94.705 Y111.902 E1.87315
G1 X91.99 Y111.977 E1.93097
G1 X91.185 Y112.011 E1.94812
G1 X90.846 Y112.011 E1.95534
G1 X90.221 Y111.984 E1.96865
G1 X87.484 Y111.904 E2.02694
G1 X84.776 Y111.902 E2.08458
G1 X82.305 Y111.969 E2.1372
G1 X82.282 Y111.969 E2.13769
G1 X80.875 Y111.999 E2.16765
G1 X80.148 Y111.948 E2.18316
G1 X79.527 Y111.847 E2.19655
G1 X78.726 Y111.629 E2.21422
G1 X78.297 Y111.463 E2.22402
G1 X77.707 Y111.178 E2.23796
G1 X77.146 Y110.847 E2.25183
G1 X76.486 Y110.36 E2.26929
G1 X76.084 Y109.994 E2.28086
G1 X75.671 Y109.556 E2.29368
G1 X75.542 Y109.397 E2.29803
G1 X75.417 Y109.236 E2.30237
G1 X75.252 Y109.01 E2.30833
G1 X74.942 Y108.511 E2.32083
G1 X74.649 Y107.953 E2.33425
G1 X74.345 Y107.195 E2.35163
G1 X74.21 Y106.724 E2.36206
G1 X74.081 Y106.077 E2.37611
G1 X74.013 Y105.483 E2.38883
G1 X73.991 Y104.854 E2.40223
G1 X74 Y104.647 E2.40664
G1 X74.014 Y104.444 E2.41097
G1 X74.284 Y101.587 E2.47206
G1 X74.461 Y98.892 E2.52955
G1 X74.561 Y96.188 E2.58715
G1 X74.586 Y93.444 E2.64556
G1 X74.533 Y90.736 E2.70322
G1 X74.404 Y88.032 E2.76084
G1 X74.198 Y85.331 E2.8185
G1 X74.024 Y83.637 E2.85475
G1 X74.015 Y83.542 E2.85678
G1 X73.997 Y83.313 E2.86167
G1 X74.001 Y82.639 E2.87602
G1 X74.045 Y82.153 E2.88641
G1 X74.159 Y81.502 E2.90047
G1 X74.314 Y80.909 E2.91352
G1 X74.598 Y80.149 E2.93079
G1 X74.813 Y79.714 E2.94112
G1 X75.15 Y79.153 E2.95505
G1 X75.517 Y78.642 E2.96844
G1 X76.064 Y78.026 E2.98598
M204 S750
G0 F3000 X76.334 Y78.32
M204 S500
G1 F600 X76.751 Y77.938 E2.99802
G1 X77.285 Y77.534 E3.01227
G1 X77.688 Y77.284 E3.02237
G1 X78.213 Y77.015 E3.03492
G1 X78.802 Y76.772 E3.04849
G1 X79.508 Y76.562 E3.06417
G1 X79.975 Y76.474 E3.07428
G1 X80.563 Y76.413 E3.08686
G1 X81.204 Y76.399 E3.10051
G1 X81.439 Y76.401 E3.10551
G1 X81.845 Y76.419 E3.11417
G1 X84.614 Y76.497 E3.17313
G1 X87.31 Y76.497 E3.23052
G1 X89.513 Y76.435 E3.27743
G1 X89.536 Y76.435 E3.27792
G1 X91.206 Y76.399 E3.31348
G1 X91.441 Y76.401 E3.31848
G1 X91.848 Y76.419 E3.32715
G1 X94.614 Y76.497 E3.38606
G1 X97.31 Y76.497 E3.44344
G1 X99.513 Y76.435 E3.49036
G1 X99.537 Y76.435 E3.49087
G1 X101.133 Y76.401 E3.52485
G1 X101.788 Y76.447 E3.53883
G1 X102.409 Y76.548 E3.55222
G1 X103.13 Y76.744 E3.56812
G1 X103.559 Y76.91 E3.57791
G1 X104.089 Y77.166 E3.59044
G1 X104.65 Y77.497 E3.60431
G1 X105.236 Y77.928 E3.61979
G1 X105.635 Y78.289 E3.63125
G1 X106.021 Y78.697 E3.6432
G1 X106.147 Y78.853 E3.64747
G1 X106.251 Y78.989 E3.65112
G1 X106.42 Y79.22 E3.65721
G1 X106.701 Y79.669 E3.66848
G1 X106.99 Y80.218 E3.68169
G1 X107.219 Y80.755 E3.69412
G1 X108.097 Y83.384 E3.75312
G1 X109.042 Y85.972 E3.81176
G1 X110.032 Y88.467 E3.8689
G1 X111.123 Y91.003 E3.92767
G1 X112.269 Y93.473 E3.98563
G1 X113.49 Y95.918 E4.0438
G1 X114.759 Y98.291 E4.10109
G1 X116.523 Y101.338 E4.17603
G1 X116.595 Y101.468 E4.17919
G1 X116.998 Y102.236 E4.19766
G1 X117.27 Y102.913 E4.21319
G1 X117.405 Y103.382 E4.22357
G1 X117.522 Y103.969 E4.23632
G1 X117.59 Y104.563 E4.24904
G1 X117.601 Y105.265 E4.26399
G1 X117.559 Y105.779 E4.27497
G1 X117.451 Y106.407 E4.28853
G1 X117.294 Y107 E4.30159
G1 X117.047 Y107.662 E4.31663
G1 X116.834 Y108.097 E4.32694
G1 X116.525 Y108.614 E4.33976
G1 X116.158 Y109.125 E4.35315
G1 X115.667 Y109.678 E4.36889
G1 X115.258 Y110.053 E4.3807
G1 X114.729 Y110.455 E4.39485
G1 X114.315 Y110.713 E4.40523
G1 X113.785 Y110.985 E4.41791
G1 X113.199 Y111.227 E4.43141
G1 X112.492 Y111.438 E4.44711
G1 X112.025 Y111.526 E4.45723
G1 X111.435 Y111.587 E4.46985
G1 X110.783 Y111.601 E4.48374
G1 X110.553 Y111.599 E4.48863
G1 X110.121 Y111.581 E4.49784
G1 X107.345 Y111.503 E4.55695
G1 X104.648 Y111.503 E4.61436
G1 X101.973 Y111.578 E4.67132
G1 X101.154 Y111.612 E4.68877
G1 X100.851 Y111.612 E4.69522
G1 X100.168 Y111.583 E4.70978
G1 X97.458 Y111.504 E4.76749
G1 X94.729 Y111.502 E4.82558
G1 X91.962 Y111.579 E4.8845
G1 X91.168 Y111.612 E4.90142
G1 X90.863 Y111.612 E4.90791
G1 X90.207 Y111.584 E4.92188
G1 X87.495 Y111.504 E4.97964
G1 X84.765 Y111.502 E5.03775
G1 X82.294 Y111.569 E5.09037
G1 X82.274 Y111.569 E5.09079
G1 X80.867 Y111.599 E5.12075
G1 X80.212 Y111.553 E5.13473
G1 X79.591 Y111.452 E5.14812
G1 X78.87 Y111.256 E5.16403
G1 X78.441 Y111.09 E5.17382
G1 X77.911 Y110.834 E5.18635
G1 X77.35 Y110.503 E5.20021
G1 X76.755 Y110.064 E5.21595
G1 X76.353 Y109.698 E5.22752
G1 X75.981 Y109.304 E5.23906
G1 X75.852 Y109.145 E5.24342
G1 X75.74 Y109 E5.24732
G1 X75.575 Y108.774 E5.25327
G1 X75.296 Y108.325 E5.26453
G1 X75.003 Y107.767 E5.27794
G1 X74.729 Y107.085 E5.29359
G1 X74.594 Y106.614 E5.30402
G1 X74.478 Y106.031 E5.31667
G1 X74.41 Y105.437 E5.3294
G1 X74.39 Y104.872 E5.34143
G1 X74.399 Y104.665 E5.34584
G1 X74.412 Y104.482 E5.34975
G1 X74.683 Y101.616 E5.41103
G1 X74.859 Y98.936 E5.4682
G1 X74.962 Y96.17 E5.52712
G1 X74.986 Y93.437 E5.58529
G1 X74.933 Y90.745 E5.64261
G1 X74.803 Y88.018 E5.70072
G1 X74.593 Y85.259 E5.75962
G1 X74.422 Y83.596 E5.79521
G1 X74.414 Y83.511 E5.79702
G1 X74.396 Y83.282 E5.80191
G1 X74.4 Y82.675 E5.81484
G1 X74.444 Y82.189 E5.82522
G1 X74.546 Y81.604 E5.83786
G1 X74.701 Y81.011 E5.85091
G1 X74.957 Y80.326 E5.86648
G1 X75.172 Y79.891 E5.87681
G1 X75.475 Y79.386 E5.88934
G1 X75.842 Y78.875 E5.90273
G1 X76.334 Y78.32 E5.91852
M204 S750
G0 F3000 X76.604 Y78.615
M204 S500
G1 F600 X77.021 Y78.233 E5.93056
G1 X77.496 Y77.874 E5.94323
G1 X77.899 Y77.624 E5.95333
G1 X78.366 Y77.385 E5.9645
G1 X78.955 Y77.142 E5.97806
G1 X79.582 Y76.955 E5.99199
G1 X80.049 Y76.867 E6.0021
G1 X80.572 Y76.813 E6.01329
G1 X81.213 Y76.799 E6.02694
G1 X81.422 Y76.801 E6.03139
G1 X81.817 Y76.818 E6.03981
G1 X84.603 Y76.897 E6.09913
G1 X87.321 Y76.897 E6.15699
G1 X89.524 Y76.835 E6.2039
G1 X89.545 Y76.835 E6.20435
G1 X91.215 Y76.799 E6.23991
G1 X91.423 Y76.801 E6.24434
G1 X91.817 Y76.818 E6.25273
G1 X94.603 Y76.897 E6.31206
G1 X97.321 Y76.897 E6.36992
G1 X99.524 Y76.835 E6.41683
G1 X99.546 Y76.835 E6.4173
G1 X101.142 Y76.801 E6.45128
G1 X101.724 Y76.842 E6.4637
G1 X102.345 Y76.943 E6.47709
G1 X102.986 Y77.117 E6.49123
G1 X103.415 Y77.283 E6.50102
G1 X103.886 Y77.511 E6.51216
G1 X104.447 Y77.842 E6.52602
G1 X104.968 Y78.225 E6.53979
G1 X105.367 Y78.586 E6.55124
G1 X105.709 Y78.948 E6.56184
G1 X105.835 Y79.104 E6.56611
G1 X105.929 Y79.226 E6.56939
G1 X106.098 Y79.457 E6.57548
G1 X106.347 Y79.855 E6.58548
G1 X106.636 Y80.404 E6.59868
G1 X106.839 Y80.881 E6.60972
G1 X107.721 Y83.522 E6.66899
G1 X108.665 Y86.109 E6.72761
G1 X109.668 Y88.637 E6.7855
G1 X110.745 Y91.137 E6.84344
G1 X111.913 Y93.654 E6.90251
G1 X113.123 Y96.079 E6.9602
G1 X114.412 Y98.488 E7.01836
G1 X116.177 Y101.538 E7.09337
G1 X116.241 Y101.654 E7.09619
G1 X116.644 Y102.422 E7.11465
G1 X116.885 Y103.024 E7.12845
G1 X117.02 Y103.493 E7.13884
G1 X117.124 Y104.014 E7.15015
G1 X117.192 Y104.608 E7.16288
G1 X117.202 Y105.233 E7.17618
G1 X117.16 Y105.747 E7.18716
G1 X117.064 Y106.305 E7.19921
G1 X116.907 Y106.898 E7.21227
G1 X116.688 Y107.486 E7.22563
G1 X116.475 Y107.921 E7.23594
G1 X116.2 Y108.381 E7.24735
G1 X115.833 Y108.892 E7.26074
G1 X115.397 Y109.384 E7.27473
G1 X114.988 Y109.759 E7.28654
G1 X114.517 Y110.116 E7.29912
G1 X114.103 Y110.374 E7.30951
G1 X113.632 Y110.616 E7.32078
G1 X113.046 Y110.858 E7.33428
G1 X112.418 Y111.045 E7.34822
G1 X111.951 Y111.133 E7.35834
G1 X111.427 Y111.187 E7.36955
G1 X110.775 Y111.201 E7.38343
G1 X110.57 Y111.199 E7.3878
G1 X110.148 Y111.181 E7.39679
G1 X107.357 Y111.103 E7.45622
G1 X104.637 Y111.103 E7.51412
G1 X101.959 Y111.178 E7.57115
G1 X101.137 Y111.212 E7.58866
G1 X100.868 Y111.212 E7.59439
G1 X100.228 Y111.185 E7.60802
G1 X97.434 Y111.104 E7.66752
G1 X94.719 Y111.102 E7.72532
G1 X91.941 Y111.179 E7.78447
G1 X91.151 Y111.212 E7.8013
G1 X90.881 Y111.212 E7.80705
G1 X90.267 Y111.186 E7.82013
G1 X87.473 Y111.104 E7.87963
G1 X84.756 Y111.102 E7.93747
G1 X82.284 Y111.169 E7.99011
G1 X82.265 Y111.169 E7.99051
G1 X80.858 Y111.199 E8.02047
G1 X80.276 Y111.158 E8.03289
G1 X79.655 Y111.057 E8.04628
G1 X79.014 Y110.883 E8.06042
G1 X78.585 Y110.717 E8.07021
G1 X78.114 Y110.489 E8.08135
G1 X77.553 Y110.158 E8.09522
G1 X77.025 Y109.768 E8.10919
G1 X76.623 Y109.402 E8.12076
G1 X76.292 Y109.052 E8.13101
G1 X76.163 Y108.893 E8.13537
G1 X76.064 Y108.764 E8.13883
G1 X75.899 Y108.538 E8.14479
G1 X75.65 Y108.139 E8.1548
G1 X75.357 Y107.581 E8.16822
G1 X75.114 Y106.975 E8.18212
G1 X74.979 Y106.504 E8.19255
G1 X74.876 Y105.986 E8.20379
G1 X74.808 Y105.392 E8.21651
G1 X74.79 Y104.889 E8.22723
G1 X74.799 Y104.682 E8.23164
G1 X74.81 Y104.52 E8.2351
G1 X75.082 Y101.646 E8.29655
G1 X75.259 Y98.941 E8.35425
G1 X75.361 Y96.188 E8.41289
G1 X75.386 Y93.436 E8.47147
G1 X75.333 Y90.719 E8.52932
G1 X75.203 Y88.002 E8.58722
G1 X74.992 Y85.23 E8.6464
G1 X74.82 Y83.556 E8.68222
G1 X74.813 Y83.48 E8.68384
G1 X74.795 Y83.251 E8.68873
G1 X74.798 Y82.711 E8.70023
G1 X74.842 Y82.225 E8.71062
G1 X74.933 Y81.705 E8.72185
G1 X75.088 Y81.112 E8.7349
G1 X75.315 Y80.503 E8.74874
G1 X75.53 Y80.068 E8.75906
G1 X75.8 Y79.619 E8.77022
G1 X76.167 Y79.108 E8.78361
G1 X76.604 Y78.615 E8.79763
M204 S750
;MESH:PiStandoffPCB.stl(3)
G0 F3000 X79.207 Y81.37
M204 S500
;TYPE:WALL-INNER
G1 F600 X79.543 Y81.064 E8.80731
G1 X79.919 Y80.832 E8.81671
G1 X80.334 Y80.671 E8.82619
G1 X80.777 Y80.588 E8.83578
G1 X81.223 Y80.588 E8.84527
G1 X81.666 Y80.671 E8.85487
G1 X82.081 Y80.832 E8.86434
G1 X82.457 Y81.064 E8.87375
G1 X82.793 Y81.37 E8.88342
G1 X83.061 Y81.725 E8.89289
G1 X83.26 Y82.125 E8.9024
G1 X83.381 Y82.554 E8.91189
G1 X83.423 Y83 E8.92142
G1 X83.381 Y83.446 E8.93096
G1 X83.26 Y83.875 E8.94045
G1 X83.061 Y84.275 E8.94996
G1 X82.793 Y84.63 E8.95943
G1 X82.457 Y84.936 E8.9691
G1 X82.081 Y85.168 E8.97851
G1 X81.666 Y85.329 E8.98798
G1 X81.223 Y85.412 E8.99757
G1 X80.777 Y85.412 E9.00707
G1 X80.334 Y85.329 E9.01666
G1 X79.919 Y85.168 E9.02614
G1 X79.543 Y84.936 E9.03554
G1 X79.207 Y84.63 E9.04522
G1 X78.939 Y84.275 E9.05468
G1 X78.74 Y83.875 E9.06419
G1 X78.619 Y83.446 E9.07368
G1 X78.577 Y83 E9.08322
G1 X78.619 Y82.554 E9.09275
G1 X78.74 Y82.125 E9.10224
G1 X78.939 Y81.725 E9.11175
G1 X79.207 Y81.37 E9.12122
M204 S750
G0 F3000 X79.246 Y81.357
M204 S500
G1 F600 X78.907 Y81.816 E9.13337
G1 X78.686 Y82.345 E9.14557
G1 X78.597 Y82.91 E9.15775
G1 X78.644 Y83.481 E9.16994
G1 X78.824 Y84.025 E9.18214
G1 X79.129 Y84.51 E9.19434
G1 X79.539 Y84.909 E9.20651
G1 X80.031 Y85.2 E9.21868
G1 X80.579 Y85.367 E9.23088
G1 X81.15 Y85.4 E9.24305
G1 X81.714 Y85.296 E9.25526
G1 X82.236 Y85.062 E9.26744
G1 X82.687 Y84.712 E9.27959
G1 X83.043 Y84.265 E9.29175
G1 X83.286 Y83.745 E9.30397
G1 X83.399 Y83.173 E9.31638
G1 X83.339 Y82.438 E9.33208
G1 X83.133 Y81.89 E9.34454
G1 X82.81 Y81.419 E9.3567
G1 X82.385 Y81.034 E9.3689
G1 X81.88 Y80.763 E9.3811
G1 X81.327 Y80.618 E9.39327
G1 X80.754 Y80.609 E9.40547
G1 X80.198 Y80.734 E9.4176
G1 X79.684 Y80.988 E9.42981
G1 X79.246 Y81.357 E9.442
M204 S750
G0 F3000 X79.54 Y81.632
M204 S500
;TYPE:WALL-OUTER
G1 F600 X79.258 Y82.015 E9.45212
G1 X79.074 Y82.455 E9.46227
G1 X79 Y82.925 E9.4724
G1 X79.039 Y83.401 E9.48257
G1 X79.189 Y83.853 E9.49271
G1 X79.442 Y84.257 E9.50285
G1 X79.784 Y84.589 E9.513
G1 X80.193 Y84.831 E9.52311
G1 X80.65 Y84.97 E9.53328
G1 X81.125 Y84.998 E9.54341
G1 X81.594 Y84.911 E9.55356
G1 X82.029 Y84.717 E9.5637
G1 X82.404 Y84.425 E9.57382
G1 X82.701 Y84.053 E9.58395
G1 X82.903 Y83.62 E9.59412
G1 X82.996 Y83.15 E9.60432
G1 X82.945 Y82.526 E9.61765
G1 X82.776 Y82.076 E9.62788
G1 X82.507 Y81.684 E9.638
G1 X82.153 Y81.363 E9.64817
G1 X81.733 Y81.138 E9.65832
G1 X81.272 Y81.017 E9.66846
G1 X80.795 Y81.01 E9.67862
G1 X80.332 Y81.114 E9.68872
G1 X79.905 Y81.325 E9.69886
G1 X79.54 Y81.632 E9.70901
M204 S750
G0 F3000 X79.422 Y81.793
G0 X78.911 Y81.099
M204 S500
G1 F600 X79.3 Y80.745 E9.7202
G1 X79.743 Y80.471 E9.73129
G1 X80.222 Y80.285 E9.74223
G1 X80.742 Y80.188 E9.75349
G1 X81.258 Y80.188 E9.76447
G1 X81.778 Y80.285 E9.77573
G1 X82.257 Y80.471 E9.78667
G1 X82.7 Y80.745 E9.79776
G1 X83.089 Y81.099 E9.80896
G1 X83.402 Y81.514 E9.82002
G1 X83.635 Y81.982 E9.83115
G1 X83.775 Y82.478 E9.84212
G1 X83.824 Y83 E9.85328
G1 X83.775 Y83.522 E9.86444
G1 X83.635 Y84.018 E9.87541
G1 X83.402 Y84.486 E9.88654
G1 X83.089 Y84.901 E9.8976
G1 X82.7 Y85.255 E9.9088
G1 X82.257 Y85.529 E9.91989
G1 X81.778 Y85.715 E9.93083
G1 X81.258 Y85.812 E9.94209
G1 X80.742 Y85.812 E9.95307
G1 X80.222 Y85.715 E9.96433
G1 X79.743 Y85.529 E9.97527
G1 X79.3 Y85.255 E9.98636
G1 X78.911 Y84.901 E9.99755
G1 X78.598 Y84.486 E10.00862
G1 X78.365 Y84.018 E10.01974
G1 X78.225 Y83.522 E10.03072
G1 X78.176 Y83 E10.04188
G1 X78.225 Y82.478 E10.05304
G1 X78.365 Y81.982 E10.06401
G1 X78.598 Y81.514 E10.07513
G1 X78.911 Y81.099 E10.0862
M204 S750
G0 F3000 X79.059 Y80.965
;MESH:PiStandoffPCB.stl
G0 X88.619 Y82.554
M204 S500
;TYPE:WALL-INNER
G1 F600 X88.74 Y82.125 E10.09569
G1 X88.939 Y81.725 E10.1052
G1 X89.207 Y81.37 E10.11467
G1 X89.543 Y81.064 E10.12434
G1 X89.919 Y80.832 E10.13374
G1 X90.334 Y80.671 E10.14322
G1 X90.777 Y80.588 E10.15281
G1 X91.223 Y80.588 E10.16231
G1 X91.666 Y80.671 E10.1719
G1 X92.081 Y80.832 E10.18138
