;FLAVOR:Marlin
;TIME:1850
;Filament used: 1.0789m
;Layer height: 0.2
;MINX:73.971
;MINY:81.5
;MINZ:0.2
;MAXX:116.029
;MAXY:108.5
;MAXZ:16.6
;Generated with Cura_SteamEngine 4.4.1
M140 S55
M105
M190 S55
M104 S200
M105
M109 S200
M82 ;absolute extrusion mode
G21 ;metric values
G90 ;absolute positioning
M82 ;set extruder to absolute mode
M107 ;start with the fan off
G1 F2000
G28 X0 Y0 ;move X/Y to min endstops
G28 Z0 ;move Z to min endstops
G1 Z10.0 F1500 ;move the platform up 15mm
G92 E0 ;zero the extruded length
G1 F300 E3 ;extrude extra 3mm of feed stock
G92 E0 ;zero the extruded length again
;Put printing message on LCD screen
M117 Printing...
G92 E0
G92 E0
G1 F1800 E-0.8
;LAYER_COUNT:83
;LAYER:0
M107
M204 S750
M205 X6 Y6
G0 F3000 X76.746 Y84.031 Z0.2
M204 S500
M205 X5 Y5
;TYPE:SKIRT
G1 F1800 E0
G1 F1500 X77.271 Y83.574 E0.01482
G1 X77.414 Y83.455 E0.01878
G1 X77.683 Y83.242 E0.02608
G1 X78.052 Y82.982 E0.03569
G1 X78.415 Y82.756 E0.04479
G1 X78.883 Y82.506 E0.05609
G1 X79.492 Y82.231 E0.07031
G1 X79.656 Y82.161 E0.0741
G1 X79.972 Y82.035 E0.08135
G1 X80.429 Y81.885 E0.09159
G1 X80.957 Y81.745 E0.10321
G1 X81.518 Y81.638 E0.11537
G1 X82.057 Y81.575 E0.12692
G1 X82.189 Y81.562 E0.12974
G1 X82.465 Y81.539 E0.13564
G1 X82.713 Y81.526 E0.14093
G1 X83.909 Y81.501 E0.16639
G1 X83.993 Y81.5 E0.16818
G1 X106.379 Y81.5 E0.6447
G1 X107.217 Y81.512 E0.66254
G1 X107.425 Y81.521 E0.66697
G1 X107.772 Y81.544 E0.67437
G1 X108.224 Y81.6 E0.68407
G1 X108.784 Y81.702 E0.69618
G1 X108.911 Y81.727 E0.69894
G1 X109.263 Y81.803 E0.7066
G1 X109.704 Y81.925 E0.71634
G1 X110.167 Y82.082 E0.72675
G1 X110.676 Y82.295 E0.7385
G1 X111.226 Y82.571 E0.7516
G1 X111.378 Y82.651 E0.75525
G1 X111.703 Y82.832 E0.76317
G1 X112.092 Y83.079 E0.77298
G1 X112.469 Y83.35 E0.78286
G1 X112.877 Y83.687 E0.79413
G1 X113.328 Y84.112 E0.80732
G1 X113.456 Y84.237 E0.81113
G1 X113.718 Y84.507 E0.81913
G1 X114.018 Y84.855 E0.82892
G1 X114.297 Y85.218 E0.83866
G1 X114.602 Y85.676 E0.85037
G1 X114.925 Y86.243 E0.86426
G1 X115.003 Y86.388 E0.86777
G1 X115.163 Y86.698 E0.8752
G1 X115.353 Y87.126 E0.88516
G1 X115.536 Y87.613 E0.89624
G1 X115.697 Y88.152 E0.90821
G1 X115.821 Y88.71 E0.92038
G1 X115.85 Y88.853 E0.92349
G1 X115.928 Y89.276 E0.93264
G1 X115.993 Y89.912 E0.94625
G1 X116.028 Y91.486 E0.97976
G1 X116.029 Y91.575 E0.98166
G1 X116.029 Y103.819 E1.24229
G1 X116.019 Y104.546 E1.25777
G1 X115.971 Y105.109 E1.26979
G1 X115.844 Y105.66 E1.28183
G1 X115.641 Y106.188 E1.29387
G1 X115.366 Y106.682 E1.30591
G1 X115.024 Y107.132 E1.31794
G1 X114.621 Y107.529 E1.32998
G1 X114.167 Y107.865 E1.342
G1 X113.67 Y108.134 E1.35403
G1 X113.14 Y108.331 E1.36607
G1 X112.587 Y108.45 E1.37811
G1 X112.131 Y108.489 E1.38785
G1 X111.811 Y108.498 E1.39467
G1 X111.699 Y108.5 E1.39705
G1 X78.626 Y108.5 E2.10106
G1 X77.928 Y108.491 E2.11592
G1 X77.365 Y108.443 E2.12795
G1 X76.814 Y108.317 E2.13998
G1 X76.286 Y108.115 E2.15201
G1 X75.792 Y107.84 E2.16405
G1 X75.342 Y107.498 E2.17608
G1 X74.944 Y107.096 E2.18812
G1 X74.608 Y106.642 E2.20014
G1 X74.338 Y106.145 E2.21218
G1 X74.141 Y105.615 E2.22422
G1 X74.021 Y105.063 E2.23624
G1 X73.981 Y104.599 E2.24616
G1 X73.972 Y104.266 E2.25325
G1 X73.971 Y104.158 E2.25555
G1 X73.971 Y91.594 E2.52299
G1 X73.972 Y91.521 E2.52454
G1 X73.998 Y90.091 E2.55499
G1 X74.021 Y89.729 E2.56271
G1 X74.069 Y89.29 E2.57211
G1 X74.168 Y88.741 E2.58398
G1 X74.349 Y88.028 E2.59964
G1 X74.412 Y87.806 E2.60455
G1 X74.528 Y87.439 E2.61275
G1 X74.704 Y86.982 E2.62317
G1 X74.901 Y86.551 E2.63326
G1 X75.158 Y86.077 E2.64474
G1 X75.512 Y85.517 E2.65884
G1 X75.602 Y85.38 E2.66233
G1 X75.801 Y85.092 E2.66978
G1 X76.09 Y84.723 E2.67976
G1 X76.37 Y84.405 E2.68878
G1 X76.746 Y84.031 E2.70007
M204 S750
M205 X6 Y6
G0 F3000 X77.008 Y84.333
M204 S500
M205 X5 Y5
G1 F1500 X77.533 Y83.876 E2.71488
G1 X77.662 Y83.769 E2.71845
G1 X77.931 Y83.556 E2.72575
G1 X78.263 Y83.322 E2.7344
G1 X78.626 Y83.096 E2.7435
G1 X79.047 Y82.871 E2.75366
G1 X79.656 Y82.596 E2.76789
G1 X79.805 Y82.533 E2.77133
G1 X80.121 Y82.407 E2.77857
G1 X80.531 Y82.271 E2.78777
G1 X81.059 Y82.131 E2.79939
G1 X81.564 Y82.035 E2.81034
G1 X82.103 Y81.972 E2.82189
G1 X82.222 Y81.96 E2.82443
G1 X82.498 Y81.937 E2.83033
G1 X82.722 Y81.926 E2.8351
G1 X83.918 Y81.901 E2.86057
G1 X83.993 Y81.9 E2.86216
G1 X106.374 Y81.9 E3.33858
G1 X107.212 Y81.912 E3.35642
G1 X107.398 Y81.92 E3.36038
G1 X107.745 Y81.943 E3.36778
G1 X108.152 Y81.993 E3.37651
G1 X108.712 Y82.095 E3.38863
G1 X108.827 Y82.118 E3.39112
G1 X109.179 Y82.194 E3.39879
G1 X109.575 Y82.304 E3.40754
G1 X110.038 Y82.461 E3.41795
G1 X110.497 Y82.652 E3.42853
G1 X111.047 Y82.928 E3.44163
G1 X111.184 Y83.001 E3.44493
G1 X111.509 Y83.182 E3.45285
G1 X111.858 Y83.404 E3.46165
G1 X112.235 Y83.675 E3.47154
G1 X112.603 Y83.978 E3.48168
G1 X113.054 Y84.403 E3.49488
G1 X113.169 Y84.516 E3.49831
G1 X113.431 Y84.786 E3.50632
G1 X113.701 Y85.099 E3.51512
G1 X113.98 Y85.462 E3.52486
G1 X114.254 Y85.874 E3.53539
G1 X114.577 Y86.441 E3.54928
G1 X114.648 Y86.572 E3.55246
G1 X114.808 Y86.882 E3.55988
G1 X114.979 Y87.267 E3.56885
G1 X115.162 Y87.754 E3.57992
G1 X115.306 Y88.239 E3.59069
G1 X115.43 Y88.797 E3.60286
G1 X115.456 Y88.925 E3.60564
G1 X115.534 Y89.348 E3.6148
G1 X115.593 Y89.921 E3.62706
G1 X115.628 Y91.495 E3.66057
G1 X115.629 Y91.575 E3.66227
G1 X115.629 Y103.814 E3.9228
G1 X115.619 Y104.541 E3.93828
G1 X115.571 Y105.075 E3.94969
G1 X115.445 Y105.596 E3.9611
G1 X115.243 Y106.093 E3.97252
G1 X114.969 Y106.554 E3.98393
G1 X114.63 Y106.969 E3.99534
G1 X114.233 Y107.33 E4.00676
G1 X113.787 Y107.627 E4.01817
G1 X113.301 Y107.855 E4.0296
G1 X112.787 Y108.008 E4.04101
G1 X112.12 Y108.09 E4.05532
G1 X111.8 Y108.099 E4.06213
G1 X111.699 Y108.1 E4.06428
G1 X78.632 Y108.1 E4.76816
G1 X77.934 Y108.091 E4.78302
G1 X77.399 Y108.044 E4.79445
G1 X76.878 Y107.918 E4.80586
G1 X76.381 Y107.716 E4.81728
G1 X75.92 Y107.443 E4.82869
G1 X75.504 Y107.104 E4.84011
G1 X75.143 Y106.708 E4.85152
G1 X74.845 Y106.262 E4.86293
G1 X74.617 Y105.776 E4.87436
G1 X74.464 Y105.262 E4.88578
G1 X74.381 Y104.588 E4.90023
G1 X74.372 Y104.255 E4.90732
G1 X74.371 Y104.158 E4.90939
G1 X74.371 Y91.594 E5.17683
G1 X74.372 Y91.529 E5.17822
G1 X74.398 Y90.099 E5.20866
G1 X74.418 Y89.773 E5.21561
G1 X74.466 Y89.334 E5.22501
G1 X74.556 Y88.839 E5.23572
G1 X74.737 Y88.126 E5.25138
G1 X74.793 Y87.927 E5.25578
G1 X74.909 Y87.56 E5.26398
G1 X75.068 Y87.148 E5.27338
G1 X75.265 Y86.717 E5.28346
G1 X75.496 Y86.29 E5.2938
G1 X75.85 Y85.73 E5.3079
G1 X75.931 Y85.608 E5.31102
G1 X76.13 Y85.32 E5.31847
G1 X76.39 Y84.987 E5.32746
G1 X76.67 Y84.669 E5.33648
G1 X77.008 Y84.333 E5.34663
M204 S750
M205 X6 Y6
G0 F3000 X77.271 Y84.634
M204 S500
M205 X5 Y5
G1 F1500 X77.796 Y84.177 E5.36144
G1 X77.911 Y84.082 E5.36462
G1 X78.18 Y83.869 E5.37192
G1 X78.475 Y83.661 E5.37961
G1 X78.838 Y83.435 E5.38871
G1 X79.212 Y83.236 E5.39773
G1 X79.821 Y82.961 E5.41195
G1 X79.953 Y82.905 E5.415
G1 X80.269 Y82.779 E5.42224
G1 X80.634 Y82.658 E5.43043
G1 X81.162 Y82.518 E5.44206
G1 X81.611 Y82.433 E5.45178
G1 X82.15 Y82.37 E5.46333
G1 X82.255 Y82.359 E5.46558
G1 X82.531 Y82.336 E5.47148
G1 X82.73 Y82.326 E5.47572
G1 X83.926 Y82.301 E5.50118
G1 X83.993 Y82.3 E5.50261
G1 X106.368 Y82.3 E5.97889
G1 X107.206 Y82.312 E5.99673
G1 X107.372 Y82.319 E6.00027
G1 X107.719 Y82.342 E6.00767
G1 X108.08 Y82.387 E6.01542
G1 X108.64 Y82.489 E6.02753
G1 X108.742 Y82.509 E6.02975
G1 X109.094 Y82.585 E6.03741
G1 X109.447 Y82.682 E6.0452
G1 X109.91 Y82.839 E6.05561
G1 X110.317 Y83.01 E6.06501
G1 X110.867 Y83.286 E6.07811
G1 X110.989 Y83.35 E6.08104
G1 X111.314 Y83.531 E6.08896
G1 X111.625 Y83.729 E6.09681
G1 X112.002 Y84 E6.10669
G1 X112.329 Y84.269 E6.1157
G1 X112.78 Y84.694 E6.12889
G1 X112.882 Y84.795 E6.13195
G1 X113.144 Y85.065 E6.13996
G1 X113.384 Y85.343 E6.14778
G1 X113.663 Y85.706 E6.15752
G1 X113.906 Y86.072 E6.16687
G1 X114.229 Y86.639 E6.18076
G1 X114.293 Y86.755 E6.18358
G1 X114.453 Y87.065 E6.19101
G1 X114.604 Y87.407 E6.19897
G1 X114.787 Y87.894 E6.21004
G1 X114.916 Y88.326 E6.21964
G1 X115.04 Y88.884 E6.23181
G1 X115.063 Y88.998 E6.23428
G1 X115.141 Y89.421 E6.24344
G1 X115.193 Y89.93 E6.25433
G1 X115.228 Y91.504 E6.28784
G1 X115.229 Y91.575 E6.28935
G1 X115.229 Y103.808 E6.54975
G1 X115.219 Y104.535 E6.56523
G1 X115.172 Y105.038 E6.57598
G1 X115.046 Y105.528 E6.58675
G1 X114.845 Y105.992 E6.59752
G1 X114.573 Y106.418 E6.60828
G1 X114.238 Y106.797 E6.61904
G1 X113.847 Y107.117 E6.6298
G1 X113.411 Y107.372 E6.64055
G1 X112.94 Y107.556 E6.65131
G1 X112.445 Y107.662 E6.66209
G1 X112.109 Y107.69 E6.66927
G1 X111.789 Y107.699 E6.67608
G1 X111.699 Y107.7 E6.678
G1 X78.637 Y107.7 E7.38177
G1 X77.939 Y107.691 E7.39663
G1 X77.435 Y107.644 E7.4074
G1 X76.945 Y107.519 E7.41817
G1 X76.481 Y107.318 E7.42893
G1 X76.055 Y107.047 E7.43968
G1 X75.676 Y106.712 E7.45045
G1 X75.355 Y106.321 E7.46122
G1 X75.1 Y105.885 E7.47197
G1 X74.916 Y105.414 E7.48273
G1 X74.809 Y104.92 E7.49349
G1 X74.781 Y104.577 E7.50082
G1 X74.772 Y104.244 E7.50791
G1 X74.771 Y104.158 E7.50974
G1 X74.771 Y91.594 E7.77718
G1 X74.772 Y91.536 E7.77842
G1 X74.798 Y90.106 E7.80886
G1 X74.816 Y89.816 E7.81505
G1 X74.864 Y89.377 E7.82445
G1 X74.943 Y88.938 E7.83394
G1 X75.124 Y88.225 E7.8496
G1 X75.175 Y88.048 E7.85352
G1 X75.291 Y87.681 E7.86171
G1 X75.432 Y87.315 E7.87006
G1 X75.629 Y86.884 E7.88015
G1 X75.834 Y86.504 E7.88934
G1 X76.188 Y85.944 E7.90344
G1 X76.26 Y85.835 E7.90622
G1 X76.459 Y85.547 E7.91368
G1 X76.69 Y85.251 E7.92167
G1 X76.97 Y84.933 E7.93069
G1 X77.271 Y84.634 E7.93972
M204 S750
M205 X6 Y6
G1 F1800 E7.13972
;MESH:Bracket.stl
G0 F3000 X80.685 Y88.267
M204 S500
M205 X5 Y5
;TYPE:WALL-INNER
G1 F1800 E7.93972
G1 F1500 X81.239 Y87.814 E7.95495
G1 X81.424 Y87.704 E7.95953
G1 X82.092 Y87.428 E7.97492
G1 X82.317 Y87.372 E7.97985
G1 X83.056 Y87.3 E7.99566
G1 X106.979 Y87.3 E8.5049
G1 X107.318 Y87.317 E8.51212
G1 X107.989 Y87.452 E8.52669
G1 X108.217 Y87.535 E8.53186
G1 X108.849 Y87.874 E8.54712
G1 X109.023 Y88.003 E8.55173
G1 X109.529 Y88.51 E8.56698
G1 X109.667 Y88.696 E8.57191
G1 X110.001 Y89.323 E8.58703
G1 X110.082 Y89.551 E8.59218
G1 X110.21 Y90.2 E8.60626
G1 X110.229 Y90.724 E8.61743
G1 X110.229 Y102.7 E8.87235
G1 X79.771 Y102.7 E9.5207
G1 X79.771 Y90.735 E9.77539
G1 X79.791 Y90.185 E9.7871
G1 X79.835 Y89.896 E9.79333
G1 X80.038 Y89.231 E9.80813
G1 X80.137 Y89.022 E9.81305
G1 X80.525 Y88.443 E9.82789
G1 X80.685 Y88.267 E9.83295
M204 S750
M205 X6 Y6
G1 F1800 E9.03295
G0 F3000 X92.025 Y93.109
M204 S500
M205 X5 Y5
G1 F1800 E9.83295
G1 F1500 X91.762 Y93.662 E9.84598
G1 X91.598 Y94.258 E9.85914
G1 X91.541 Y94.881 E9.87246
G1 X91.601 Y95.492 E9.88553
G1 X91.782 Y96.163 E9.90032
G1 X92.333 Y97.084 E9.92317
G1 X92.849 Y97.575 E9.93833
G1 X93.366 Y97.917 E9.95152
G1 X93.939 Y98.159 E9.96476
G1 X94.62 Y98.314 E9.97963
G1 X95.679 Y98.268 E10.00219
G1 X96.363 Y98.047 E10.0175
G1 X96.911 Y97.752 E10.03074
G1 X97.394 Y97.365 E10.04392
G1 X97.8 Y96.895 E10.05714
G1 X98.117 Y96.366 E10.07027
G1 X98.361 Y95.711 E10.08515
G1 X98.458 Y94.649 E10.10785
G1 X98.332 Y93.951 E10.12294
G1 X98.111 Y93.361 E10.13635
G1 X97.791 Y92.832 E10.14952
G1 X97.385 Y92.366 E10.16267
G1 X96.896 Y91.979 E10.17595
G1 X96.354 Y91.691 E10.18901
G1 X95.688 Y91.473 E10.20393
G1 X94.625 Y91.425 E10.22658
G1 X93.929 Y91.583 E10.24177
G1 X93.355 Y91.83 E10.25507
G1 X92.844 Y92.169 E10.26813
G1 X92.391 Y92.598 E10.28141
G1 X92.025 Y93.109 E10.29479
M204 S750
M205 X6 Y6
G0 F3000 X92.694 Y92.862
M204 S500
M205 X5 Y5
G1 F1500 X92.371 Y93.313 E10.30659
G1 X92.138 Y93.802 E10.31812
G1 X91.993 Y94.33 E10.32978
G1 X91.943 Y94.88 E10.34154
G1 X91.996 Y95.42 E10.35309
G1 X92.154 Y96.005 E10.36598
G1 X92.648 Y96.832 E10.38649
G1 X93.099 Y97.261 E10.39974
G1 X93.556 Y97.563 E10.4114
G1 X94.062 Y97.777 E10.42309
G1 X94.656 Y97.912 E10.43606
G1 X95.608 Y97.871 E10.45634
G1 X96.205 Y97.678 E10.4697
G1 X96.689 Y97.417 E10.48141
G1 X97.115 Y97.076 E10.49302
G1 X97.475 Y96.66 E10.50473
G1 X97.755 Y96.192 E10.51634
G1 X97.968 Y95.621 E10.52931
G1 X98.055 Y94.667 E10.5497
G1 X97.945 Y94.057 E10.5629
G1 X97.75 Y93.536 E10.57474
G1 X97.467 Y93.069 E10.58636
G1 X97.108 Y92.657 E10.598
G1 X96.676 Y92.315 E10.60973
G1 X96.197 Y92.06 E10.62128
G1 X95.616 Y91.87 E10.63429
G1 X94.661 Y91.827 E10.65464
G1 X94.053 Y91.965 E10.66791
G1 X93.546 Y92.183 E10.67966
G1 X93.094 Y92.483 E10.6912
G1 X92.694 Y92.862 E10.70293
M204 S750
M205 X6 Y6
G1 F1800 E9.90293
G0 F3000 X83.037 Y86.9
M204 S500
M205 X5 Y5
G1 F1800 E10.70293
G1 F1500 X106.999 Y86.9 E11.213
G1 X107.364 Y86.918 E11.22078
G1 X108.099 Y87.066 E11.23674
G1 X108.382 Y87.169 E11.24315
G1 X109.059 Y87.532 E11.2595
G1 X109.288 Y87.702 E11.26557
G1 X109.834 Y88.249 E11.28202
G1 X110.006 Y88.482 E11.28819
G1 X110.367 Y89.157 E11.30448
G1 X110.468 Y89.444 E11.31096
G1 X110.609 Y90.158 E11.32645
G1 X110.629 Y90.71 E11.33821
G1 X110.629 Y103.1 E11.60195
G1 X79.371 Y103.1 E12.26732
G1 X79.371 Y90.72 E12.53085
G1 X79.392 Y90.146 E12.54308
G1 X79.443 Y89.808 E12.55035
G1 X79.661 Y89.093 E12.56626
G1 X79.79 Y88.821 E12.57267
G1 X80.209 Y88.196 E12.58869
G1 X80.41 Y87.975 E12.59505
G1 X81.006 Y87.488 E12.61143
G1 X81.249 Y87.343 E12.61745
G1 X81.963 Y87.048 E12.6339
G1 X82.251 Y86.977 E12.64021
G1 X83.037 Y86.9 E12.65702
M204 S750
M205 X6 Y6
G1 F1800 E11.85702
G0 F3000 X82.186 Y86.582
M204 S500
M205 X5 Y5
G1 F1800 E12.65702
G1 F1500 X83.018 Y86.5 E12.67482
G1 X106.999 Y86.5 E13.18529
G1 X107.416 Y86.521 E13.19418
G1 X108.209 Y86.68 E13.2114
G1 X108.547 Y86.803 E13.21905
G1 X109.273 Y87.192 E13.23658
G1 X109.551 Y87.399 E13.24396
G1 X110.136 Y87.985 E13.26159
G1 X110.347 Y88.271 E13.26915
G1 X110.732 Y88.991 E13.28653
G1 X110.854 Y89.336 E13.29432
G1 X111.008 Y90.117 E13.31127
G1 X111.029 Y90.695 E13.32358
G1 X111.029 Y103.5 E13.59615
G1 X78.971 Y103.5 E14.27856
G1 X78.971 Y90.705 E14.55092
G1 X78.993 Y90.107 E14.56365
G1 X79.051 Y89.722 E14.57194
G1 X79.286 Y88.95 E14.58912
G1 X79.442 Y88.622 E14.59685
G1 X79.893 Y87.949 E14.6141
G1 X80.135 Y87.683 E14.62175
G1 X80.777 Y87.158 E14.6394
G1 X81.069 Y86.984 E14.64664
G1 X81.832 Y86.669 E14.66421
G1 X82.186 Y86.582 E14.67197
M204 S750
M205 X6 Y6
G1 F1800 E13.87197
G0 F3000 X92.717 Y93.517
M204 S500
M205 X5 Y5
G1 F1800 E14.67197
G1 F1500 X92.514 Y93.942 E14.682
G1 X92.388 Y94.401 E14.69213
G1 X92.345 Y94.878 E14.70232
G1 X92.391 Y95.348 E14.71238
G1 X92.526 Y95.847 E14.72338
G1 X92.963 Y96.58 E14.74154
G1 X93.349 Y96.947 E14.75288
G1 X93.746 Y97.209 E14.76301
G1 X94.185 Y97.395 E14.77316
G1 X94.692 Y97.51 E14.78422
G1 X95.537 Y97.474 E14.80223
G1 X96.047 Y97.309 E14.81364
G1 X96.467 Y97.082 E14.8238
G1 X96.837 Y96.786 E14.83389
G1 X97.15 Y96.425 E14.84406
G1 X97.393 Y96.018 E14.85415
G1 X97.575 Y95.531 E14.86521
G1 X97.652 Y94.685 E14.8833
G1 X97.558 Y94.163 E14.89459
G1 X97.389 Y93.711 E14.90486
G1 X97.143 Y93.306 E14.91494
G1 X96.831 Y92.948 E14.92505
G1 X96.456 Y92.651 E14.93524
G1 X96.04 Y92.429 E14.94527
G1 X95.544 Y92.267 E14.95638
G1 X94.697 Y92.229 E14.97443
G1 X94.177 Y92.347 E14.98578
G1 X93.737 Y92.536 E14.99597
G1 X93.344 Y92.797 E15.00601
G1 X92.997 Y93.126 E15.01619
G1 X92.717 Y93.517 E15.02643
M204 S750
M205 X6 Y6
G0 F3000 X93.3 Y93.39
M204 S500
M205 X5 Y5
G1 F1500 X93.063 Y93.721 E15.0351
G1 X92.89 Y94.082 E15.04362
G1 X92.783 Y94.472 E15.05223
G1 X92.747 Y94.876 E15.06086
G1 X92.786 Y95.276 E15.06941
G1 X92.898 Y95.69 E15.07854
G1 X93.278 Y96.328 E15.09435
G1 X93.599 Y96.633 E15.10378
G1 X93.936 Y96.855 E15.11237
G1 X94.308 Y97.013 E15.12097
G1 X94.728 Y97.108 E15.13014
G1 X95.466 Y97.077 E15.14586
G1 X95.889 Y96.94 E15.15532
G1 X96.245 Y96.747 E15.16394
G1 X96.559 Y96.496 E15.1725
G1 X96.825 Y96.19 E15.18113
G1 X97.031 Y95.844 E15.1897
G1 X97.182 Y95.441 E15.19886
G1 X97.249 Y94.703 E15.21464
G1 X97.171 Y94.269 E15.22402
G1 X97.028 Y93.887 E15.23271
G1 X96.819 Y93.543 E15.24128
G1 X96.554 Y93.239 E15.24986
G1 X96.236 Y92.987 E15.2585
G1 X95.882 Y92.798 E15.26704
G1 X95.472 Y92.664 E15.27622
G1 X94.733 Y92.631 E15.29197
G1 X94.301 Y92.729 E15.3014
G1 X93.928 Y92.889 E15.31004
G1 X93.594 Y93.111 E15.31857
G1 X93.3 Y93.39 E15.3272
M204 S750
M205 X6 Y6
