;FLAVOR:Marlin
;TIME:7971
;Filament used: 4.79934m
;Layer height: 0.2
;MINX:41.523
;MINY:41.518
;MINZ:0.2
;MAXX:148.487
;MAXY:148.481
;MAXZ:6.4
;Generated with Cura_SteamEngine 4.4.1
M140 S55
M105
M190 S55
M104 S200
M105
M109 S200
M82 ;absolute extrusion mode
G21 ;metric values
G90 ;absolute positioning
M82 ;set extruder to absolute mode
M107 ;start with the fan off
G1 F2000
G28 X0 Y0 ;move X/Y to min endstops
G28 Z0 ;move Z to min endstops
G1 Z10.0 F1500 ;move the platform up 15mm
G92 E0 ;zero the extruded length
G1 F300 E3 ;extrude extra 3mm of feed stock
G92 E0 ;zero the extruded length again
;Put printing message on LCD screen
M117 Printing...
G92 E0
G92 E0
G1 F1800 E-0.8
;LAYER_COUNT:32
;LAYER:0
M107
M204 S750
M205 X6 Y6
G0 F3000 X56.88 Y57.49 Z0.2
M204 S500
M205 X5 Y5
;TYPE:SKIRT
G1 F1800 E0
G1 F1500 X57.486 Y56.893 E0.01811
G1 X57.523 Y56.857 E0.01921
G1 X58.548 Y55.873 E0.04945
G1 X58.592 Y55.831 E0.05075
G1 X59.085 Y55.372 E0.06509
G1 X59.176 Y55.29 E0.06769
G1 X59.826 Y54.721 E0.08608
G1 X59.873 Y54.681 E0.0874
G1 X61.004 Y53.721 E0.11897
G1 X61.048 Y53.684 E0.1202
G1 X61.509 Y53.304 E0.13291
G1 X61.601 Y53.231 E0.13541
G1 X62.306 Y52.684 E0.15441
G1 X62.354 Y52.647 E0.1557
G1 X63.515 Y51.774 E0.18662
G1 X63.568 Y51.735 E0.18802
G1 X64.054 Y51.382 E0.20081
G1 X64.145 Y51.317 E0.20319
G1 X64.909 Y50.794 E0.2229
G1 X64.964 Y50.758 E0.22429
G1 X66.149 Y49.975 E0.25453
G1 X66.192 Y49.947 E0.25562
G1 X66.729 Y49.602 E0.26921
G1 X66.832 Y49.537 E0.2718
G1 X67.575 Y49.091 E0.29025
G1 X67.631 Y49.059 E0.29162
G1 X68.905 Y48.322 E0.32295
G1 X68.957 Y48.292 E0.32423
G1 X69.501 Y47.988 E0.33749
G1 X69.603 Y47.933 E0.33996
G1 X70.353 Y47.542 E0.35796
G1 X70.409 Y47.513 E0.35931
G1 X71.783 Y46.824 E0.39202
G1 X71.84 Y46.797 E0.39337
G1 X72.392 Y46.531 E0.40641
G1 X72.499 Y46.481 E0.40892
G1 X73.295 Y46.126 E0.42748
G1 X73.351 Y46.101 E0.42878
G1 X74.709 Y45.52 E0.46022
G1 X74.759 Y45.499 E0.46138
G1 X75.332 Y45.263 E0.47457
G1 X75.444 Y45.219 E0.47713
G1 X76.237 Y44.92 E0.49517
G1 X76.3 Y44.897 E0.4966
G1 X77.688 Y44.4 E0.52798
G1 X77.742 Y44.381 E0.5292
G1 X78.356 Y44.171 E0.54301
G1 X78.47 Y44.134 E0.54556
G1 X79.267 Y43.888 E0.56332
G1 X79.323 Y43.871 E0.56457
G1 X80.75 Y43.453 E0.59622
G1 X80.806 Y43.437 E0.59746
G1 X81.405 Y43.271 E0.61069
G1 X81.521 Y43.241 E0.61324
G1 X82.366 Y43.034 E0.63176
G1 X82.426 Y43.02 E0.63307
G1 X83.838 Y42.697 E0.6639
G1 X83.893 Y42.685 E0.6651
G1 X84.533 Y42.548 E0.67903
G1 X84.652 Y42.524 E0.68162
G1 X85.49 Y42.371 E0.69975
G1 X85.556 Y42.36 E0.70117
G1 X87.014 Y42.119 E0.73263
G1 X87.067 Y42.11 E0.73378
G1 X87.694 Y42.015 E0.74727
G1 X87.808 Y41.999 E0.74972
G1 X88.627 Y41.899 E0.76729
G1 X88.691 Y41.892 E0.76866
G1 X90.185 Y41.734 E0.80064
G1 X90.246 Y41.728 E0.80194
G1 X90.832 Y41.675 E0.81447
G1 X90.946 Y41.667 E0.8169
G1 X91.807 Y41.614 E0.83526
G1 X91.873 Y41.61 E0.83667
G1 X93.338 Y41.544 E0.86789
G1 X93.4 Y41.542 E0.86921
G1 X94.075 Y41.522 E0.88358
G1 X94.183 Y41.52 E0.88588
G1 X94.985 Y41.518 E0.90295
G1 X95.051 Y41.518 E0.90436
G1 X96.556 Y41.539 E0.9364
G1 X96.605 Y41.54 E0.93744
G1 X97.213 Y41.556 E0.95039
G1 X97.339 Y41.562 E0.95307
G1 X98.203 Y41.612 E0.97149
G1 X98.267 Y41.616 E0.97286
G1 X99.714 Y41.723 E1.00374
G1 X99.77 Y41.727 E1.00494
G1 X100.395 Y41.782 E1.01829
G1 X100.516 Y41.795 E1.02089
G1 X101.425 Y41.903 E1.04037
G1 X101.491 Y41.911 E1.04179
G1 X102.986 Y42.114 E1.0739
G1 X103.04 Y42.122 E1.07506
G1 X103.595 Y42.205 E1.08701
G1 X103.711 Y42.224 E1.08951
G1 X104.589 Y42.382 E1.1085
G1 X104.652 Y42.394 E1.10987
G1 X106.097 Y42.678 E1.14121
G1 X106.152 Y42.689 E1.14241
G1 X106.754 Y42.816 E1.1555
G1 X106.873 Y42.843 E1.1581
G1 X107.696 Y43.043 E1.17613
G1 X107.753 Y43.058 E1.17738
G1 X109.233 Y43.441 E1.20993
G1 X109.288 Y43.455 E1.21113
G1 X109.821 Y43.601 E1.2229
G1 X109.94 Y43.636 E1.22554
G1 X110.818 Y43.906 E1.24509
G1 X110.876 Y43.924 E1.24638
G1 X112.254 Y44.371 E1.27722
G1 X112.311 Y44.39 E1.2785
G1 X112.909 Y44.594 E1.29195
G1 X113.018 Y44.633 E1.29441
G1 X113.802 Y44.926 E1.31223
G1 X113.862 Y44.949 E1.3136
G1 X115.252 Y45.494 E1.34538
G1 X115.303 Y45.514 E1.34655
G1 X115.874 Y45.747 E1.35967
G1 X115.988 Y45.796 E1.36231
G1 X116.784 Y46.15 E1.38086
G1 X116.838 Y46.175 E1.38213
G1 X118.135 Y46.775 E1.41255
G1 X118.187 Y46.799 E1.41376
G1 X118.818 Y47.102 E1.42866
G1 X118.926 Y47.156 E1.43123
G1 X119.627 Y47.519 E1.44804
G1 X119.682 Y47.548 E1.44936
G1 X121.029 Y48.272 E1.48191
G1 X121.079 Y48.299 E1.48312
G1 X121.606 Y48.592 E1.49596
G1 X121.71 Y48.652 E1.49851
G1 X122.453 Y49.095 E1.51693
G1 X122.506 Y49.127 E1.51825
G1 X123.747 Y49.893 E1.54929
G1 X123.791 Y49.921 E1.5504
G1 X124.345 Y50.273 E1.56437
G1 X124.448 Y50.341 E1.567
G1 X125.141 Y50.812 E1.58484
G1 X125.194 Y50.848 E1.5862
G1 X126.371 Y51.676 E1.61683
G1 X126.414 Y51.707 E1.61796
G1 X126.931 Y52.081 E1.63154
G1 X127.027 Y52.152 E1.63408
G1 X127.761 Y52.717 E1.6538
G1 X127.816 Y52.76 E1.65529
G1 X128.954 Y53.668 E1.68628
G1 X128.999 Y53.705 E1.68752
G1 X129.465 Y54.088 E1.70036
G1 X129.551 Y54.161 E1.70276
G1 X130.199 Y54.725 E1.72105
G1 X130.248 Y54.768 E1.72243
G1 X131.354 Y55.763 E1.7541
G1 X131.399 Y55.804 E1.7554
G1 X131.841 Y56.214 E1.76823
G1 X131.923 Y56.292 E1.77064
G1 X132.572 Y56.929 E1.79
G1 X132.617 Y56.974 E1.79135
G1 X133.618 Y57.988 E1.82168
G1 X133.658 Y58.029 E1.8229
G1 X134.102 Y58.492 E1.83656
G1 X134.181 Y58.578 E1.83904
G1 X134.759 Y59.217 E1.85738
G1 X134.805 Y59.268 E1.85884
G1 X135.748 Y60.347 E1.88935
G1 X135.784 Y60.389 E1.89053
G1 X136.214 Y60.895 E1.90466
G1 X136.29 Y60.987 E1.9072
G1 X136.841 Y61.676 E1.92598
G1 X136.879 Y61.724 E1.92728
G1 X137.75 Y62.848 E1.95755
G1 X137.788 Y62.898 E1.95889
G1 X138.187 Y63.43 E1.97304
G1 X138.256 Y63.525 E1.97554
G1 X138.751 Y64.227 E1.99383
G1 X138.785 Y64.275 E1.99508
G1 X139.609 Y65.481 E2.02617
G1 X139.64 Y65.528 E2.02737
G1 X139.98 Y66.041 E2.04047
G1 X140.046 Y66.144 E2.04307
G1 X140.525 Y66.917 E2.06243
G1 X140.558 Y66.97 E2.06376
G1 X141.322 Y68.247 E2.09544
G1 X141.35 Y68.295 E2.09662
G1 X141.63 Y68.778 E2.1085
G1 X141.69 Y68.885 E2.11112
G1 X142.101 Y69.647 E2.12955
G1 X142.129 Y69.7 E2.13082
G1 X142.815 Y71.019 E2.16247
G1 X142.841 Y71.071 E2.16371
G1 X143.125 Y71.637 E2.17719
G1 X143.177 Y71.744 E2.17972
G1 X143.537 Y72.518 E2.19789
G1 X143.562 Y72.574 E2.19919
G1 X144.172 Y73.94 E2.23104
G1 X144.194 Y73.989 E2.23218
G1 X144.423 Y74.521 E2.24451
G1 X144.468 Y74.63 E2.24702
G1 X144.801 Y75.471 E2.26628
G1 X144.828 Y75.542 E2.26789
G1 X145.343 Y76.918 E2.29917
G1 X145.36 Y76.965 E2.30023
G1 X145.566 Y77.537 E2.31317
G1 X145.605 Y77.648 E2.31568
G1 X145.87 Y78.458 E2.33382
G1 X145.89 Y78.521 E2.33523
G1 X146.32 Y79.912 E2.36622
G1 X146.335 Y79.963 E2.36735
G1 X146.514 Y80.571 E2.38084
G1 X146.547 Y80.689 E2.38345
G1 X146.787 Y81.607 E2.40365
G1 X146.802 Y81.668 E2.40498
G1 X147.122 Y82.976 E2.43365
G1 X147.134 Y83.026 E2.43474
G1 X147.295 Y83.722 E2.44995
G1 X147.32 Y83.838 E2.45247
G1 X147.48 Y84.637 E2.46982
G1 X147.494 Y84.709 E2.47138
G1 X147.763 Y86.194 E2.50351
G1 X147.772 Y86.244 E2.50459
G1 X147.869 Y86.821 E2.51704
G1 X147.887 Y86.94 E2.5196
G1 X148.01 Y87.836 E2.53886
G1 X148.018 Y87.901 E2.54025
G1 X148.19 Y89.328 E2.57085
G1 X148.196 Y89.383 E2.57202
G1 X148.265 Y90.03 E2.58587
G1 X148.276 Y90.149 E2.58842
G1 X148.34 Y90.986 E2.60629
G1 X148.345 Y91.046 E2.60757
G1 X148.432 Y92.465 E2.63783
G1 X148.435 Y92.524 E2.63909
G1 X148.465 Y93.17 E2.65285
G1 X148.468 Y93.287 E2.65534
G1 X148.481 Y94.037 E2.67131
G1 X148.482 Y94.093 E2.6725
G1 X148.487 Y95.621 E2.70503
G1 X148.487 Y95.679 E2.70626
G1 X148.48 Y96.302 E2.71953
G1 X148.476 Y96.424 E2.72213
G1 X148.438 Y97.331 E2.74145
G1 X148.436 Y97.391 E2.74273
G1 X148.348 Y98.94 E2.77575
G1 X148.344 Y98.994 E2.77691
G1 X148.305 Y99.547 E2.78871
G1 X148.294 Y99.676 E2.79146
G1 X148.187 Y100.714 E2.81367
G1 X148.179 Y100.783 E2.81515
G1 X148.018 Y102.119 E2.8438
G1 X148.012 Y102.171 E2.84491
G1 X147.923 Y102.835 E2.85917
G1 X147.905 Y102.956 E2.86178
G1 X147.765 Y103.804 E2.88007
G1 X147.754 Y103.866 E2.88141
G1 X147.483 Y105.359 E2.91371
G1 X147.473 Y105.411 E2.91484
G1 X147.367 Y105.954 E2.92662
G1 X147.341 Y106.075 E2.92925
G1 X147.148 Y106.924 E2.94778
G1 X147.134 Y106.984 E2.9491
G1 X146.779 Y108.441 E2.98102
G1 X146.765 Y108.497 E2.98225
G1 X146.613 Y109.084 E2.99515
G1 X146.581 Y109.202 E2.99776
G1 X146.345 Y110.01 E3.01567
G1 X146.327 Y110.068 E3.01697
G1 X145.889 Y111.488 E3.0486
G1 X145.873 Y111.54 E3.04976
G1 X145.679 Y112.14 E3.06318
G1 X145.639 Y112.258 E3.06583
G1 X145.337 Y113.101 E3.08489
G1 X145.317 Y113.156 E3.08614
G1 X144.829 Y114.458 E3.11574
G1 X144.808 Y114.512 E3.11697
G1 X144.559 Y115.148 E3.13151
G1 X144.514 Y115.257 E3.13402
G1 X144.17 Y116.065 E3.15271
G1 X144.144 Y116.125 E3.1541
G1 X143.562 Y117.432 E3.18456
G1 X143.539 Y117.483 E3.18575
G1 X143.265 Y118.076 E3.19966
G1 X143.214 Y118.183 E3.20218
G1 X142.856 Y118.901 E3.21926
G1 X142.827 Y118.957 E3.2206
G1 X142.132 Y120.298 E3.25275
G1 X142.104 Y120.35 E3.25401
G1 X141.795 Y120.925 E3.2679
G1 X141.739 Y121.027 E3.27038
G1 X141.32 Y121.755 E3.28826
G1 X141.287 Y121.812 E3.28966
G1 X140.536 Y123.069 E3.32083
G1 X140.509 Y123.113 E3.32193
G1 X140.173 Y123.659 E3.33558
G1 X140.105 Y123.765 E3.33826
G1 X139.623 Y124.496 E3.3569
G1 X139.591 Y124.545 E3.35814
G1 X138.751 Y125.779 E3.38992
G1 X138.716 Y125.829 E3.39122
G1 X138.389 Y126.294 E3.40332
G1 X138.321 Y126.387 E3.40577
G1 X137.786 Y127.103 E3.4248
G1 X137.747 Y127.155 E3.42618
G1 X136.89 Y128.264 E3.45601
G1 X136.853 Y128.311 E3.45729
G1 X136.406 Y128.872 E3.47256
G1 X136.335 Y128.959 E3.47495
G1 X135.8 Y129.593 E3.4926
G1 X135.757 Y129.643 E3.49401
G1 X134.79 Y130.751 E3.52531
G1 X134.747 Y130.799 E3.52668
G1 X134.318 Y131.275 E3.54032
G1 X134.244 Y131.356 E3.54266
G1 X133.665 Y131.964 E3.56053
G1 X133.617 Y132.013 E3.56199
G1 X132.606 Y133.039 E3.59265
G1 X132.565 Y133.08 E3.59389
G1 X132.072 Y133.566 E3.60862
G1 X131.99 Y133.645 E3.61105
G1 X131.381 Y134.212 E3.62876
G1 X131.333 Y134.255 E3.63013
G1 X130.198 Y135.278 E3.66266
G1 X130.153 Y135.318 E3.66394
G1 X129.739 Y135.68 E3.67564
G1 X129.653 Y135.753 E3.67805
G1 X128.953 Y136.331 E3.69737
G1 X128.901 Y136.373 E3.69879
G1 X127.776 Y137.271 E3.72943
G1 X127.734 Y137.305 E3.73058
G1 X127.238 Y137.69 E3.74395
G1 X127.138 Y137.765 E3.74661
G1 X126.415 Y138.291 E3.76564
G1 X126.365 Y138.326 E3.76694
G1 X125.195 Y139.15 E3.7974
G1 X125.146 Y139.184 E3.79867
G1 X124.592 Y139.562 E3.81295
G1 X124.496 Y139.626 E3.8154
G1 X123.806 Y140.068 E3.83285
G1 X123.753 Y140.101 E3.83418
G1 X122.472 Y140.894 E3.86625
G1 X122.424 Y140.924 E3.86745
G1 X121.917 Y141.228 E3.88004
G1 X121.807 Y141.291 E3.88273
G1 X121.014 Y141.733 E3.90206
G1 X120.966 Y141.759 E3.90322
G1 X119.741 Y142.42 E3.93285
G1 X119.69 Y142.447 E3.93408
G1 X119.074 Y142.768 E3.94886
G1 X118.964 Y142.824 E3.95149
G1 X118.191 Y143.197 E3.96976
G1 X118.137 Y143.222 E3.97103
G1 X116.777 Y143.853 E4.00294
G1 X116.726 Y143.876 E4.00413
G1 X116.214 Y144.105 E4.01607
G1 X116.105 Y144.152 E4.0186
G1 X115.258 Y144.501 E4.0381
G1 X115.196 Y144.526 E4.03952
G1 X113.854 Y145.053 E4.07021
G1 X113.806 Y145.072 E4.07131
G1 X113.224 Y145.292 E4.08456
G1 X113.105 Y145.335 E4.08725
G1 X112.275 Y145.619 E4.10592
G1 X112.218 Y145.637 E4.1072
G1 X110.842 Y146.085 E4.138
G1 X110.787 Y146.103 E4.13923
G1 X110.18 Y146.291 E4.15276
G1 X110.067 Y146.324 E4.15526
G1 X109.21 Y146.562 E4.1742
G1 X109.148 Y146.579 E4.17556
G1 X107.735 Y146.947 E4.20665
G1 X107.676 Y146.962 E4.20794
G1 X107.082 Y147.107 E4.22096
G1 X106.974 Y147.132 E4.22332
G1 X106.123 Y147.315 E4.24185
G1 X106.056 Y147.328 E4.2433
G1 X104.6 Y147.615 E4.27489
G1 X104.544 Y147.626 E4.2761
G1 X103.958 Y147.733 E4.28878
G1 X103.844 Y147.752 E4.29124
G1 X102.967 Y147.886 E4.31013
G1 X102.903 Y147.895 E4.3115
G1 X101.442 Y148.094 E4.34289
G1 X101.381 Y148.102 E4.3442
G1 X100.776 Y148.175 E4.35717
G1 X100.661 Y148.187 E4.35963
G1 X99.796 Y148.266 E4.37812
G1 X99.735 Y148.272 E4.37943
G1 X98.379 Y148.375 E4.40837
G1 X98.323 Y148.378 E4.40957
G1 X97.612 Y148.422 E4.42473
G1 X97.494 Y148.428 E4.42725
G1 X96.687 Y148.454 E4.44443
G1 X96.625 Y148.455 E4.44575
G1 X95.182 Y148.479 E4.47647
G1 X95.121 Y148.48 E4.47777
G1 X94.407 Y148.481 E4.49297
G1 X94.294 Y148.48 E4.49538
G1 X93.511 Y148.459 E4.51205
G1 X93.451 Y148.457 E4.51333
G1 X91.967 Y148.395 E4.54495
G1 X91.909 Y148.392 E4.54618
G1 X91.288 Y148.357 E4.55942
G1 X91.168 Y148.348 E4.56198
G1 X90.256 Y148.269 E4.58147
G1 X90.192 Y148.263 E4.58284
G1 X88.79 Y148.119 E4.61284
G1 X88.731 Y148.112 E4.6141
G1 X88.095 Y148.037 E4.62773
G1 X87.98 Y148.022 E4.6302
G1 X87.091 Y147.891 E4.64933
G1 X87.026 Y147.881 E4.65073
G1 X85.552 Y147.639 E4.68253
G1 X85.494 Y147.629 E4.68378
G1 X84.869 Y147.517 E4.6973
G1 X84.754 Y147.495 E4.69979
G1 X83.881 Y147.312 E4.71878
G1 X83.813 Y147.297 E4.72026
G1 X82.347 Y146.963 E4.75226
G1 X82.299 Y146.952 E4.75331
G1 X81.776 Y146.826 E4.76476
G1 X81.652 Y146.794 E4.76749
G1 X80.761 Y146.549 E4.78716
G1 X80.703 Y146.532 E4.78845
G1 X79.32 Y146.129 E4.81911
G1 X79.265 Y146.113 E4.82033
G1 X78.659 Y145.927 E4.83382
G1 X78.542 Y145.889 E4.83644
G1 X77.7 Y145.602 E4.85538
G1 X77.646 Y145.583 E4.8566
G1 X76.293 Y145.1 E4.88718
G1 X76.242 Y145.081 E4.88833
G1 X75.638 Y144.856 E4.90205
G1 X75.522 Y144.811 E4.9047
G1 X74.753 Y144.497 E4.92238
G1 X74.696 Y144.473 E4.9237
G1 X73.315 Y143.884 E4.95566
G1 X73.263 Y143.862 E4.95686
G1 X72.699 Y143.612 E4.96999
G1 X72.591 Y143.562 E4.97253
G1 X71.811 Y143.188 E4.99094
G1 X71.753 Y143.16 E4.99231
G1 X70.483 Y142.526 E5.02253
G1 X70.434 Y142.501 E5.0237
G1 X69.828 Y142.188 E5.03822
G1 X69.722 Y142.131 E5.04078
G1 X68.944 Y141.699 E5.05972
G1 X68.89 Y141.668 E5.06105
G1 X67.624 Y140.939 E5.09214
G1 X67.569 Y140.907 E5.0935
G1 X67.028 Y140.584 E5.10691
G1 X66.932 Y140.525 E5.10931
G1 X66.176 Y140.044 E5.12838
G1 X66.119 Y140.007 E5.12983
G1 X64.877 Y139.187 E5.16151
G1 X64.83 Y139.156 E5.16271
G1 X64.354 Y138.832 E5.17496
G1 X64.257 Y138.763 E5.1775
G1 X63.533 Y138.238 E5.19654
G1 X63.482 Y138.201 E5.19788
G1 X62.321 Y137.331 E5.22876
G1 X62.275 Y137.296 E5.22999
G1 X61.77 Y136.906 E5.24357
G1 X61.676 Y136.831 E5.24613
G1 X61.021 Y136.293 E5.26417
G1 X60.976 Y136.256 E5.26541
G1 X59.846 Y135.3 E5.29692
G1 X59.801 Y135.26 E5.2982
G1 X59.339 Y134.857 E5.31125
G1 X59.247 Y134.775 E5.31388
G1 X58.581 Y134.157 E5.33322
G1 X58.539 Y134.117 E5.33445
G1 X57.526 Y133.149 E5.36428
G1 X57.482 Y133.106 E5.36559
G1 X57.006 Y132.637 E5.37981
G1 X56.924 Y132.555 E5.38228
G1 X56.311 Y131.915 E5.40114
G1 X56.269 Y131.869 E5.40247
G1 X55.271 Y130.794 E5.43369
G1 X55.23 Y130.751 E5.43496
G1 X54.829 Y130.306 E5.44771
G1 X54.751 Y130.216 E5.45024
G1 X54.203 Y129.57 E5.46828
G1 X54.165 Y129.525 E5.46953
G1 X53.241 Y128.403 E5.50047
G1 X53.206 Y128.359 E5.50167
G1 X52.794 Y127.844 E5.51571
G1 X52.718 Y127.746 E5.51835
G1 X52.173 Y127.02 E5.53767
G1 X52.136 Y126.97 E5.53899
G1 X51.3 Y125.819 E5.56928
G1 X51.268 Y125.774 E5.57045
G1 X50.901 Y125.254 E5.584
G1 X50.833 Y125.155 E5.58656
G1 X50.354 Y124.431 E5.60503
G1 X50.319 Y124.378 E5.60639
G1 X49.544 Y123.165 E5.63703
G1 X49.514 Y123.117 E5.63823
G1 X49.174 Y122.568 E5.65198
G1 X49.112 Y122.463 E5.65457
G1 X48.667 Y121.693 E5.6735
G1 X48.637 Y121.641 E5.67478
G1 X47.935 Y120.383 E5.70545
G1 X47.908 Y120.333 E5.70666
G1 X47.601 Y119.764 E5.72042
G1 X47.545 Y119.658 E5.72297
G1 X47.18 Y118.93 E5.74031
G1 X47.153 Y118.875 E5.74161
G1 X46.487 Y117.494 E5.77425
G1 X46.462 Y117.44 E5.77551
G1 X46.223 Y116.925 E5.7876
G1 X46.174 Y116.816 E5.79014
G1 X45.81 Y115.966 E5.80983
G1 X45.788 Y115.912 E5.81107
G1 X45.232 Y114.56 E5.84219
G1 X45.21 Y114.505 E5.84345
G1 X44.998 Y113.967 E5.85576
G1 X44.953 Y113.85 E5.85842
G1 X44.642 Y112.982 E5.87805
G1 X44.622 Y112.925 E5.87934
G1 X44.154 Y111.554 E5.91017
G1 X44.136 Y111.499 E5.91141
G1 X43.934 Y110.878 E5.92531
G1 X43.899 Y110.765 E5.92782
G1 X43.684 Y110.031 E5.94411
G1 X43.668 Y109.973 E5.94539
G1 X43.251 Y108.465 E5.97869
G1 X43.235 Y108.408 E5.97995
G1 X43.083 Y107.825 E5.99278
